packages/kaspersky-hexa-ui-icons/src/iconsSVGs/24/Beta.svg

<svg width="24" height="24" viewBox="0 0 24 24" fill="none" xmlns="http://www.w3.org/2000/svg">
<path fill-rule="evenodd" clip-rule="evenodd" d="M14.9468 9.39317C15.6041 8.61092 16 7.60169 16 6.5C16 4.01472 13.9853 2 11.5 2H11C8.23858 2 6 4.23858 6 7V21C6 21.5523 6.44772 22 7 22C7.55228 22 8 21.5523 8 21V18.0004C8.83566 18.6281 9.87439 19 11 19H13C15.7614 19 18 16.7614 18 14C18 11.9292 16.7411 10.1524 14.9468 9.39317ZM11 4C9.34315 4 8 5.34315 8 7V14C8 15.6569 9.34315 17 11 17H13C14.6569 17 16 15.6569 16 14C16 12.3431 14.6569 11 13 11H11C10.4477 11 10 10.5523 10 10C10 9.44772 10.4477 9 11 9H11.5C12.8807 9 14 7.88071 14 6.5C14 5.11929 12.8807 4 11.5 4H11Z" fill="black"/>
</svg>

<svg xmlns="http://www.w3.org/2000/svg" width="24" height="24" fill="none" viewBox="0 0 24 24"><path fill="#000" fill-rule="evenodd" d="M14.9468 9.3932A4.482 4.482 0 0 0 16 6.5C16 4.0147 13.9853 2 11.5 2H11C8.2386 2 6 4.2386 6 7v14c0 .5523.4477 1 1 1s1-.4477 1-1v-2.9996A4.978 4.978 0 0 0 11 19h2c2.7614 0 5-2.2386 5-5 0-2.0708-1.2589-3.8476-3.0532-4.6068M11 4C9.3431 4 8 5.3431 8 7v7c0 1.6569 1.3431 3 3 3h2c1.6569 0 3-1.3431 3-3s-1.3431-3-3-3h-2c-.5523 0-1-.4477-1-1s.4477-1 1-1h.5C12.8807 9 14 7.8807 14 6.5S12.8807 4 11.5 4z"/></svg>
